ids-wordpress/site-IdS/assets/images/icones redes sociais/github.svg

<svg width="25" height="25" viewBox="0 0 25 25" fill="none" xmlns="http://www.w3.org/2000/svg">
<path fill-rule="evenodd" clip-rule="evenodd" d="M17.8934 9.86062C18.2024 8.86391 18.0805 7.78341 17.5571 6.88062C17.4678 6.72588 17.3027 6.63058 17.124 6.63062C15.9431 6.62814 14.8306 7.18439 14.124 8.13062H12.624C11.9174 7.18439 10.8049 6.62814 9.62402 6.63062C9.44535 6.63058 9.28024 6.72588 9.1909 6.88062C8.66759 7.78341 8.54567 8.86391 8.85465 9.86062C8.54573 10.3998 8.38025 11.0092 8.37402 11.6306V12.1306C8.3762 13.88 9.66838 15.3597 11.4015 15.5975C11.0594 16.0353 10.8737 16.575 10.874 17.1306V17.6306H9.37402C8.5456 17.6306 7.87402 16.959 7.87402 16.1306C7.87402 14.7499 6.75474 13.6306 5.37402 13.6306C5.09788 13.6306 4.87402 13.8545 4.87402 14.1306C4.87402 14.4068 5.09788 14.6306 5.37402 14.6306C6.20245 14.6306 6.87402 15.3022 6.87402 16.1306C6.87402 17.5113 7.99331 18.6306 9.37402 18.6306H10.874V19.6306C10.874 19.9068 11.0979 20.1306 11.374 20.1306C11.6502 20.1306 11.874 19.9068 11.874 19.6306V17.1306C11.874 16.3022 12.5456 15.6306 13.374 15.6306C14.2025 15.6306 14.874 16.3022 14.874 17.1306V19.6306C14.874 19.9068 15.0979 20.1306 15.374 20.1306C15.6502 20.1306 15.874 19.9068 15.874 19.6306V17.1306C15.8743 16.575 15.6886 16.0353 15.3465 15.5975C17.0797 15.3597 18.3718 13.88 18.374 12.1306V11.6306C18.3678 11.0092 18.2023 10.3998 17.8934 9.86062ZM17.374 12.1306C17.374 13.5113 16.2547 14.6306 14.874 14.6306H11.874C10.4933 14.6306 9.37402 13.5113 9.37402 12.1306V11.6306C9.38015 11.1306 9.52985 10.6429 9.80527 10.2256C9.90966 10.088 9.93565 9.90632 9.87402 9.74499C9.61099 9.06663 9.62876 8.31148 9.9234 7.64624C10.7523 7.73541 11.4956 8.19677 11.9434 8.89999C12.0349 9.04312 12.1929 9.12998 12.3628 9.13062H14.3846C14.5552 9.13062 14.714 9.04368 14.8059 8.89999C15.2536 8.19671 15.997 7.73532 16.8259 7.64624C17.1201 8.31165 17.1375 9.0668 16.874 9.74499C16.8126 9.90468 16.8361 10.0846 16.9365 10.2231C17.2147 10.6404 17.3666 11.1291 17.374 11.6306V12.1306Z" fill="#3A3A3A"/>
<rect x="3.62402" y="3.6499" width="18.5" height="18.5" rx="1.25" stroke="#3A3A3A" stroke-width="1.5"/>
</svg>

<svg xmlns="http://www.w3.org/2000/svg" width="25" height="25" fill="none"><path fill="#3A3A3A" fill-rule="evenodd" d="M17.893 9.86a3.736 3.736 0 0 0-.336-2.98.5.5 0 0 0-.433-.25 3.734 3.734 0 0 0-3 1.5h-1.5a3.734 3.734 0 0 0-3-1.5.5.5 0 0 0-.433.25 3.736 3.736 0 0 0-.336 2.98 3.634 3.634 0 0 0-.481 1.77v.5a3.504 3.504 0 0 0 3.027 3.467 2.488 2.488 0 0 0-.527 1.534v.5h-1.5a1.5 1.5 0 0 1-1.5-1.5 2.5 2.5 0 0 0-2.5-2.5.5.5 0 0 0 0 1 1.5 1.5 0 0 1 1.5 1.5 2.5 2.5 0 0 0 2.5 2.5h1.5v1a.5.5 0 1 0 1 0v-2.5a1.5 1.5 0 0 1 3 0v2.5a.5.5 0 1 0 1 0v-2.5c0-.556-.185-1.096-.527-1.534a3.504 3.504 0 0 0 3.027-3.466v-.5a3.634 3.634 0 0 0-.48-1.77Zm-.519 2.27a2.5 2.5 0 0 1-2.5 2.5h-3a2.5 2.5 0 0 1-2.5-2.5v-.5c.006-.5.156-.987.431-1.404a.5.5 0 0 0 .069-.481 2.738 2.738 0 0 1 .05-2.099c.828.09 1.572.55 2.02 1.254a.5.5 0 0 0 .419.23h2.022a.5.5 0 0 0 .42-.23 2.742 2.742 0 0 1 2.02-1.254c.295.666.313 1.42.049 2.099a.506.506 0 0 0 .063.478c.278.417.43.906.437 1.408v.5Z" clip-rule="evenodd"/><rect width="18.5" height="18.5" x="3.624" y="3.65" stroke="#3A3A3A" stroke-width="1.5" rx="1.25"/></svg>
